apps/scalable/3Depict.svg

<svg xmlns="http://www.w3.org/2000/svg" style="isolation:isolate" width="256" height="256"><defs><filter id="a" width="270.648" height="254.338" x="-7.32" y="2.95" filterUnits="userSpaceOnUse"><feGaussianBlur xmlns="http://www.w3.org/2000/svg" in="SourceGraphic" stdDeviation="4.294"/><feOffset xmlns="http://www.w3.org/2000/svg" dy="4" result="pf_100_offsetBlur"/><feFlood xmlns="http://www.w3.org/2000/svg" flood-opacity=".4"/><feComposite xmlns="http://www.w3.org/2000/svg" in2="pf_100_offsetBlur" operator="in" result="pf_100_dropShadow"/><feBlend xmlns="http://www.w3.org/2000/svg" in="SourceGraphic" in2="pf_100_dropShadow"/></filter></defs><g filter="url(#a)"><linearGradient id="b" x1=".5" x2=".5" y1="-.036" y2="1.036" gradientTransform="matrix(244.648 0 0 228.338 5.676 11.947)" gradientUnits="userSpaceOnUse"><stop offset="0%"/><stop offset="100%" stop-color="#333"/></linearGradient><path fill="url(#b)" d="M165.685 11.947c74.055 0 84.639 10.557 84.639 84.544v59.251c0 73.986-10.584 84.543-84.639 84.543h-75.37c-74.055 0-84.639-10.557-84.639-84.543V96.491c0-73.987 10.584-84.544 84.639-84.544h75.37z"/></g><defs><filter id="c" width="115.365" height="115.365" x="98.64" y="56.5" filterUnits="userSpaceOnUse"><feGaussianBlur xmlns="http://www.w3.org/2000/svg" in="SourceGraphic" stdDeviation="4.294"/><feOffset xmlns="http://www.w3.org/2000/svg" dy="4" result="pf_100_offsetBlur"/><feFlood xmlns="http://www.w3.org/2000/svg" flood-opacity=".4"/><feComposite xmlns="http://www.w3.org/2000/svg" in2="pf_100_offsetBlur" operator="in" result="pf_100_dropShadow"/><feBlend xmlns="http://www.w3.org/2000/svg" in="SourceGraphic" in2="pf_100_dropShadow"/></filter></defs><g filter="url(#c)"><radialGradient id="d" cx=".5" cy=".5" r=".5" fx=".43" fy=".396" gradientTransform="matrix(196.692 31.103 1.314 166.903 54.431 -3.116)" gradientUnits="userSpaceOnUse"><stop offset="1.739%" stop-color="#fa9381"/><stop offset="51.834%" stop-color="#bc1938"/></radialGradient><path fill="url(#d)" d="M114.231 95.199c8.27-23.229 33.843-35.373 57.071-27.103 23.228 8.271 35.372 33.843 27.102 57.071-8.27 23.228-33.843 35.372-57.071 27.102-23.228-8.27-35.372-33.842-27.102-57.07z"/></g><defs><filter id="e" width="115.348" height="115.349" x="42" y="56.87" filterUnits="userSpaceOnUse"><feGaussianBlur xmlns="http://www.w3.org/2000/svg" in="SourceGraphic" stdDeviation="4.294"/><feOffset xmlns="http://www.w3.org/2000/svg" dy="4" result="pf_100_offsetBlur"/><feFlood xmlns="http://www.w3.org/2000/svg" flood-opacity=".4"/><feComposite xmlns="http://www.w3.org/2000/svg" in2="pf_100_offsetBlur" operator="in" result="pf_100_dropShadow"/><feBlend xmlns="http://www.w3.org/2000/svg" in="SourceGraphic" in2="pf_100_dropShadow"/></filter></defs><g filter="url(#e)"><radialGradient id="f" cx=".5" cy=".5" r=".5" fx=".497" fy=".486" gradientTransform="matrix(98.151 10.067 4.795 95.919 40.526 36.972)" gradientUnits="userSpaceOnUse"><stop offset="0%" stop-color="#cbe667"/><stop offset="100%" stop-color="#46a926"/></radialGradient><path fill="url(#f)" d="M55 110.547c0-24.657 20.018-44.675 44.674-44.675s44.674 20.018 44.674 44.675c0 24.656-20.018 44.674-44.674 44.674S55 135.203 55 110.547z"/></g><defs><filter id="g" width="115.348" height="115.349" x="70.33" y="92.15" filterUnits="userSpaceOnUse"><feGaussianBlur xmlns="http://www.w3.org/2000/svg" in="SourceGraphic" stdDeviation="4.294"/><feOffset xmlns="http://www.w3.org/2000/svg" dy="4" result="pf_100_offsetBlur"/><feFlood xmlns="http://www.w3.org/2000/svg" flood-opacity=".4"/><feComposite xmlns="http://www.w3.org/2000/svg" in2="pf_100_offsetBlur" operator="in" result="pf_100_dropShadow"/><feBlend xmlns="http://www.w3.org/2000/svg" in="SourceGraphic" in2="pf_100_dropShadow"/></filter></defs><g filter="url(#g)"><radialGradient id="h" cx=".5" cy=".5" r=".5" fx=".497" fy=".486" gradientTransform="matrix(98.151 10.067 4.795 95.919 68.852 72.251)" gradientUnits="userSpaceOnUse"><stop offset="1.739%" stop-color="#aee3f8"/><stop offset="100%" stop-color="#1463a5"/></radialGradient><path fill="url(#h)" d="M83.326 145.825c0-24.656 20.018-44.674 44.674-44.674s44.674 20.018 44.674 44.674c0 24.657-20.018 44.675-44.674 44.675s-44.674-20.018-44.674-44.675z"/></g><g opacity=".4"><linearGradient id="i" x1=".517" x2=".517" y2="1"><stop offset="0%" stop-color="#fff"/><stop offset="12.5%" stop-opacity=".098" stop-color="#fff"/><stop offset="92.5%" stop-opacity=".098"/><stop offset="100%" stop-opacity=".498"/></linearGradient><path fill="none" stroke="url(#i)" stroke-linecap="round" stroke-linejoin="round" stroke-width="4.077" d="M165.685 11.947c74.055 0 84.639 10.557 84.639 84.544v59.251c0 73.986-10.584 84.543-84.639 84.543h-75.37c-74.055 0-84.639-10.557-84.639-84.543V96.491c0-73.987 10.584-84.544 84.639-84.544h75.37z" vector-effect="non-scaling-stroke"/></g></svg>

<svg xmlns="http://www.w3.org/2000/svg" style="isolation:isolate" width="256" height="256" viewBox="0 0 256 256">
 <defs>
  <filter id="6ChJacoJlXQX5KNsa4BSSePjDxibHiBz" width="270.648" height="254.338" x="-7.32" y="2.95" filterUnits="userSpaceOnUse">
   <feGaussianBlur xmlns="http://www.w3.org/2000/svg" in="SourceGraphic" stdDeviation="4.294"/>
   <feOffset xmlns="http://www.w3.org/2000/svg" dx="0" dy="4" result="pf_100_offsetBlur"/>
   <feFlood xmlns="http://www.w3.org/2000/svg" flood-opacity=".4"/>
   <feComposite xmlns="http://www.w3.org/2000/svg" in2="pf_100_offsetBlur" operator="in" result="pf_100_dropShadow"/>
   <feBlend xmlns="http://www.w3.org/2000/svg" in="SourceGraphic" in2="pf_100_dropShadow" mode="normal"/>
  </filter>
 </defs>
 <g filter="url(#6ChJacoJlXQX5KNsa4BSSePjDxibHiBz)">
  <linearGradient id="_lgradient_2" x1=".5" x2=".5" y1="-.036" y2="1.036" gradientTransform="matrix(244.648,0,0,228.338,5.676,11.947)" gradientUnits="userSpaceOnUse">
   <stop offset="0%" style="stop-color:rgb(0,0,0)"/>
   <stop offset="100%" style="stop-color:rgb(51,51,51)"/>
  </linearGradient>
  <path fill="url(#_lgradient_2)" d="M 165.685 11.947 C 239.74 11.947 250.324 22.504 250.324 96.491 L 250.324 155.742 C 250.324 229.728 239.74 240.285 165.685 240.285 L 90.315 240.285 C 16.26 240.285 5.676 229.728 5.676 155.742 L 5.676 96.491 C 5.676 22.504 16.26 11.947 90.315 11.947 L 165.685 11.947 Z"/>
 </g>
 <defs>
  <filter id="ApxbMkbtq2F23ExtTKtnIVv6n8ZNjDHW" width="115.365" height="115.365" x="98.64" y="56.5" filterUnits="userSpaceOnUse">
   <feGaussianBlur xmlns="http://www.w3.org/2000/svg" in="SourceGraphic" stdDeviation="4.294"/>
   <feOffset xmlns="http://www.w3.org/2000/svg" dx="0" dy="4" result="pf_100_offsetBlur"/>
   <feFlood xmlns="http://www.w3.org/2000/svg" flood-opacity=".4"/>
   <feComposite xmlns="http://www.w3.org/2000/svg" in2="pf_100_offsetBlur" operator="in" result="pf_100_dropShadow"/>
   <feBlend xmlns="http://www.w3.org/2000/svg" in="SourceGraphic" in2="pf_100_dropShadow" mode="normal"/>
  </filter>
 </defs>
 <g filter="url(#ApxbMkbtq2F23ExtTKtnIVv6n8ZNjDHW)">
  <radialGradient id="_rgradient_0" cx=".5" cy=".5" r=".5" fx=".43" fy=".396" gradientTransform="matrix(196.692,31.103,1.314,166.903,54.431,-3.116)" gradientUnits="userSpaceOnUse">
   <stop offset="1.739%" style="stop-color:rgb(250,147,129)"/>
   <stop offset="51.834%" style="stop-color:rgb(188,25,56)"/>
  </radialGradient>
  <path fill="url(#_rgradient_0)" d="M 114.231 95.199 C 122.501 71.97 148.074 59.826 171.302 68.096 C 194.53 76.367 206.674 101.939 198.404 125.167 C 190.134 148.395 164.561 160.539 141.333 152.269 C 118.105 143.999 105.961 118.427 114.231 95.199 Z"/>
 </g>
 <defs>
  <filter id="GFvPXQV3pQCRSehETINMaK1XSrt6v7lZ" width="115.348" height="115.349" x="42" y="56.87" filterUnits="userSpaceOnUse">
   <feGaussianBlur xmlns="http://www.w3.org/2000/svg" in="SourceGraphic" stdDeviation="4.294"/>
   <feOffset xmlns="http://www.w3.org/2000/svg" dx="0" dy="4" result="pf_100_offsetBlur"/>
   <feFlood xmlns="http://www.w3.org/2000/svg" flood-opacity=".4"/>
   <feComposite xmlns="http://www.w3.org/2000/svg" in2="pf_100_offsetBlur" operator="in" result="pf_100_dropShadow"/>
   <feBlend xmlns="http://www.w3.org/2000/svg" in="SourceGraphic" in2="pf_100_dropShadow" mode="normal"/>
  </filter>
 </defs>
 <g filter="url(#GFvPXQV3pQCRSehETINMaK1XSrt6v7lZ)">
  <radialGradient id="_rgradient_1" cx=".5" cy=".5" r=".5" fx=".497" fy=".486" gradientTransform="matrix(98.151,10.067,4.795,95.919,40.526,36.972)" gradientUnits="userSpaceOnUse">
   <stop offset="0%" style="stop-color:rgb(203,230,103)"/>
   <stop offset="100%" style="stop-color:rgb(70,169,38)"/>
  </radialGradient>
  <path fill="url(#_rgradient_1)" d="M 55 110.547 C 55 85.89 75.018 65.872 99.674 65.872 C 124.33 65.872 144.348 85.89 144.348 110.547 C 144.348 135.203 124.33 155.221 99.674 155.221 C 75.018 155.221 55 135.203 55 110.547 Z"/>
 </g>
 <defs>
  <filter id="uP5xLNJhFfQOtqMnSqoGwKrdwHfBElWa" width="115.348" height="115.349" x="70.33" y="92.15" filterUnits="userSpaceOnUse">
   <feGaussianBlur xmlns="http://www.w3.org/2000/svg" in="SourceGraphic" stdDeviation="4.294"/>
   <feOffset xmlns="http://www.w3.org/2000/svg" dx="0" dy="4" result="pf_100_offsetBlur"/>
   <feFlood xmlns="http://www.w3.org/2000/svg" flood-opacity=".4"/>
   <feComposite xmlns="http://www.w3.org/2000/svg" in2="pf_100_offsetBlur" operator="in" result="pf_100_dropShadow"/>
   <feBlend xmlns="http://www.w3.org/2000/svg" in="SourceGraphic" in2="pf_100_dropShadow" mode="normal"/>
  </filter>
 </defs>
 <g filter="url(#uP5xLNJhFfQOtqMnSqoGwKrdwHfBElWa)">
  <radialGradient id="_rgradient_2" cx=".5" cy=".5" r=".5" fx=".497" fy=".486" gradientTransform="matrix(98.151,10.067,4.795,95.919,68.852,72.251)" gradientUnits="userSpaceOnUse">
   <stop offset="1.739%" style="stop-color:rgb(174,227,248)"/>
   <stop offset="100%" style="stop-color:rgb(20,99,165)"/>
  </radialGradient>
  <path fill="url(#_rgradient_2)" d="M 83.326 145.825 C 83.326 121.169 103.344 101.151 128 101.151 C 152.656 101.151 172.674 121.169 172.674 145.825 C 172.674 170.482 152.656 190.5 128 190.5 C 103.344 190.5 83.326 170.482 83.326 145.825 Z"/>
 </g>
 <g opacity=".4">
  <linearGradient id="_lgradient_3" x1=".517" x2=".517" y1="0" y2="1">
   <stop offset="0%" style="stop-color:rgb(255,255,255)"/>
   <stop offset="12.5%" stop-opacity=".098" style="stop-color:rgb(255,255,255)"/>
   <stop offset="92.5%" stop-opacity=".098" style="stop-color:rgb(0,0,0)"/>
   <stop offset="100%" stop-opacity=".498" style="stop-color:rgb(0,0,0)"/>
  </linearGradient>
  <path fill="none" stroke="url(#_lgradient_3)" stroke-linecap="round" stroke-linejoin="round" stroke-width="4.077" d="M 165.685 11.947 C 239.74 11.947 250.324 22.504 250.324 96.491 L 250.324 155.742 C 250.324 229.728 239.74 240.285 165.685 240.285 L 90.315 240.285 C 16.26 240.285 5.676 229.728 5.676 155.742 L 5.676 96.491 C 5.676 22.504 16.26 11.947 90.315 11.947 L 165.685 11.947 Z" vector-effect="non-scaling-stroke"/>
 </g>
</svg>
